flaticon/seo-and-analytics/worldwide-21.svg

<svg xmlns="http://www.w3.org/2000/svg" width="32" height="32" viewBox="0 0 24 24">
    <path d="M 22.832031 15.957031 C 23.339844 14.640625 23.59375 13.21875 23.59375 11.796875 C 23.59375 5.429688 18.53125 0.230469 12.214844 0.0078125 L 12.203125 0 L 12 0 C 11.960938 0 11.878906 0 11.835938 0 C 11.835938 0 11.832031 0 11.828125 0 C 11.816406 0 11.808594 0 11.796875 0 C 11.757812 0 11.675781 0 11.632812 0 L 11.390625 0 L 11.378906 0.0078125 C 5.0625 0.230469 0 5.429688 0 11.796875 C 0 14.769531 1.105469 17.492188 2.925781 19.566406 C 2.9375 19.597656 2.953125 19.625 2.96875 19.648438 C 3.007812 19.703125 3.054688 19.742188 3.109375 19.769531 C 5.175781 22.023438 8.109375 23.46875 11.378906 23.585938 L 11.390625 23.59375 L 11.632812 23.59375 C 11.675781 23.59375 11.757812 23.59375 11.796875 23.59375 C 13.238281 23.59375 14.675781 23.332031 15.976562 22.84375 C 16.828125 23.566406 17.925781 24 19.117188 24 C 21.804688 24 24 21.804688 24 19.117188 C 24 17.914062 23.558594 16.8125 22.832031 15.957031 Z M 19.359375 14.242188 C 19.339844 14.242188 19.316406 14.242188 19.296875 14.242188 C 19.238281 14.238281 19.179688 14.238281 19.117188 14.238281 C 18.601562 14.238281 18.101562 14.320312 17.632812 14.46875 C 17.789062 13.679688 17.871094 12.96875 17.894531 12.203125 L 22.773438 12.203125 C 22.738281 13.28125 22.570312 14.324219 22.210938 15.335938 C 21.402344 14.671875 20.457031 14.3125 19.445312 14.25 C 19.414062 14.246094 19.386719 14.246094 19.359375 14.242188 Z M 7.761719 17.660156 C 8.933594 17.316406 10.148438 17.125 11.390625 17.089844 L 11.390625 22.539062 C 9.820312 21.167969 8.59375 19.503906 7.761719 17.660156 Z M 11.390625 16.277344 C 10.042969 16.3125 8.722656 16.53125 7.453125 16.917969 C 6.882812 15.429688 6.558594 13.839844 6.515625 12.203125 L 11.390625 12.203125 Z M 0.820312 12.203125 L 5.699219 12.203125 C 5.746094 13.925781 6.082031 15.601562 6.683594 17.175781 C 5.53125 17.59375 4.425781 18.15625 3.382812 18.851562 C 1.859375 17.039062 0.914062 14.730469 0.820312 12.203125 Z M 3.585938 4.503906 C 4.605469 5.160156 5.6875 5.6875 6.816406 6.082031 C 6.132812 7.75 5.75 9.542969 5.699219 11.390625 L 0.820312 11.390625 C 0.917969 8.753906 1.945312 6.351562 3.585938 4.503906 Z M 22.769531 11.390625 L 17.894531 11.390625 C 17.84375 9.542969 17.460938 7.746094 16.777344 6.078125 C 17.90625 5.683594 18.984375 5.152344 19.992188 4.488281 C 21.640625 6.335938 22.675781 8.746094 22.769531 11.390625 Z M 16.441406 5.320312 C 15.667969 3.6875 14.59375 2.191406 13.261719 0.910156 C 15.632812 1.226562 17.765625 2.304688 19.410156 3.886719 C 18.476562 4.484375 17.480469 4.960938 16.441406 5.320312 Z M 11.390625 6.09375 C 10.21875 6.0625 9.054688 5.882812 7.933594 5.566406 C 8.757812 3.867188 9.921875 2.332031 11.390625 1.054688 Z M 12.203125 1.019531 C 13.6875 2.300781 14.867188 3.847656 15.695312 5.558594 C 14.5625 5.878906 13.386719 6.0625 12.203125 6.09375 Z M 7.152344 5.320312 C 6.113281 4.960938 5.117188 4.484375 4.183594 3.886719 C 5.824219 2.304688 7.960938 1.226562 10.332031 0.910156 C 9 2.191406 7.925781 3.6875 7.152344 5.320312 Z M 6.515625 11.390625 C 6.5625 9.625 6.933594 7.914062 7.589844 6.328125 C 8.816406 6.679688 10.089844 6.875 11.390625 6.910156 L 11.390625 11.390625 Z M 12.203125 6.910156 C 13.515625 6.875 14.804688 6.675781 16.039062 6.3125 C 16.699219 7.90625 17.070312 9.621094 17.121094 11.390625 L 12.203125 11.390625 Z M 3.929688 19.457031 C 4.894531 18.8125 5.921875 18.296875 6.988281 17.914062 C 7.773438 19.6875 8.902344 21.308594 10.332031 22.683594 C 7.835938 22.347656 5.605469 21.175781 3.929688 19.457031 Z M 12.203125 22.773438 L 12.203125 12.203125 L 17.121094 12.203125 C 17.09375 13.089844 16.976562 13.878906 16.746094 14.859375 C 15.253906 15.695312 14.238281 17.292969 14.238281 19.117188 C 14.238281 19.179688 14.238281 19.238281 14.242188 19.296875 C 14.242188 19.316406 14.242188 19.339844 14.242188 19.359375 C 14.246094 19.386719 14.246094 19.414062 14.25 19.445312 C 14.3125 20.457031 14.671875 21.402344 15.335938 22.210938 C 14.324219 22.535156 13.28125 22.730469 12.203125 22.773438 Z M 19.117188 23.1875 C 16.882812 23.1875 15.050781 21.355469 15.050781 19.117188 C 15.050781 16.890625 16.867188 15.066406 19.089844 15.050781 C 20.226562 15.054688 21.277344 15.5 22.046875 16.3125 L 22.15625 16.417969 C 22.796875 17.140625 23.1875 18.085938 23.1875 19.117188 C 23.1875 21.355469 21.355469 23.1875 19.117188 23.1875 Z M 19.117188 23.1875"/>
    <path d="M 21.558594 18.710938 L 19.527344 18.710938 L 19.527344 16.679688 C 19.527344 16.433594 19.363281 16.269531 19.117188 16.269531 C 18.875 16.269531 18.710938 16.433594 18.710938 16.679688 L 18.710938 19.117188 C 18.710938 19.363281 18.875 19.527344 19.117188 19.527344 L 21.558594 19.527344 C 21.804688 19.527344 21.964844 19.363281 21.964844 19.117188 C 21.964844 18.875 21.804688 18.710938 21.558594 18.710938 Z M 21.558594 18.710938"/>
</svg>

<svg xmlns="http://www.w3.org/2000/svg" width="32" height="32" viewBox="0 0 24 24">
    <path d="M22.832 15.957c.508-1.316.762-2.738.762-4.16C23.594 5.43 18.53.23 12.214.007L12.205 0h-.368-.445l-.012.008C5.063.23 0 5.43 0 11.797c0 2.973 1.105 5.695 2.926 7.77a.377.377 0 0 0 .184.203c2.066 2.253 5 3.699 8.269 3.816l.012.008h.406c1.441 0 2.879-.262 4.18-.75A4.841 4.841 0 0 0 19.117 24 4.895 4.895 0 0 0 24 19.117a4.867 4.867 0 0 0-1.168-3.16zm-3.473-1.715h-.062c-.059-.004-.117-.004-.18-.004-.515 0-1.015.082-1.484.23.156-.788.238-1.5.262-2.265h4.878c-.035 1.078-.203 2.121-.562 3.133a4.759 4.759 0 0 0-2.766-1.086c-.03-.004-.058-.004-.086-.008zM7.762 17.66a14.304 14.304 0 0 1 3.629-.57v5.45a14.257 14.257 0 0 1-3.63-4.88zm3.629-1.383a14.821 14.821 0 0 0-3.938.641 14.205 14.205 0 0 1-.937-4.715h4.875zM.82 12.203h4.878c.047 1.723.383 3.399.985 4.973-1.153.418-2.258.98-3.301 1.676A10.931 10.931 0 0 1 .82 12.203zm2.765-7.7a15.27 15.27 0 0 0 3.23 1.579A15.07 15.07 0 0 0 5.7 11.391H.82a10.958 10.958 0 0 1 2.766-6.887zm19.184 6.888h-4.875a15.092 15.092 0 0 0-1.118-5.313 14.576 14.576 0 0 0 3.215-1.59 10.93 10.93 0 0 1 2.778 6.903zM16.44 5.32a15.081 15.081 0 0 0-3.18-4.41 10.956 10.956 0 0 1 6.15 2.976 13.96 13.96 0 0 1-2.97 1.433zm-5.05.773a14.132 14.132 0 0 1-3.457-.528 14.162 14.162 0 0 1 3.457-4.511zm.812-5.074a14.124 14.124 0 0 1 3.492 4.539c-1.133.32-2.308.503-3.492.535zm-5.05 4.3a13.96 13.96 0 0 1-2.97-1.433A10.944 10.944 0 0 1 10.333.91a15.081 15.081 0 0 0-3.18 4.41zm-.637 6.07A14.213 14.213 0 0 1 7.59 6.329c1.226.352 2.5.547 3.8.582v4.48zm5.687-4.48a15.004 15.004 0 0 0 3.836-.598 14.322 14.322 0 0 1 1.082 5.079h-4.918zM3.93 19.457a14.052 14.052 0 0 1 3.058-1.543 15.092 15.092 0 0 0 3.344 4.77 10.98 10.98 0 0 1-6.402-3.227zm8.273 3.316v-10.57h4.918c-.027.887-.144 1.676-.375 2.656a4.888 4.888 0 0 0-2.504 4.438v.062c.004.028.004.055.008.086a4.759 4.759 0 0 0 1.086 2.766c-1.012.324-2.055.52-3.133.562zm6.914.415a4.082 4.082 0 0 1-4.066-4.07 4.08 4.08 0 0 1 4.039-4.067 4.047 4.047 0 0 1 2.957 1.261l.11.106a4.06 4.06 0 0 1 1.03 2.7 4.083 4.083 0 0 1-4.07 4.07zm0 0"/>
    <path d="M21.559 18.71h-2.032v-2.03c0-.246-.164-.41-.41-.41-.242 0-.406.164-.406.41v2.437c0 .246.164.41.406.41h2.442c.246 0 .406-.164.406-.41 0-.242-.16-.406-.406-.406zm0 0"/>
</svg>
